assets/img/braze_icons/corner-right-down.svg

<svg fill="none" height="24" viewBox="0 0 24 24" width="24" xmlns="http://www.w3.org/2000/svg"><path d="m6.4 5c1.69666 0 2.90901.00078 3.8594.07842.9386.0767 1.5333.22337 2.0106.46655.9408.47936 1.7057 1.24427 2.185 2.18508.2432.47726.3899 1.07192.4666 2.01059.0776.95036.0784 2.16266.0784 3.85936v3.9858l-3.2929-3.2929c-.3905-.3905-1.0237-.3905-1.4142 0-.39053.3905-.39053 1.0237 0 1.4142l5 5c.3905.3905 1.0237.3905 1.4142 0l5-5c.3905-.3905.3905-1.0237 0-1.4142s-1.0237-.3905-1.4142 0l-3.2929 3.2929v-4.0302c0-1.6426 0-2.9365-.0851-3.97782-.0868-1.06235-.2671-1.94951-.6779-2.75571-.6711-1.31714-1.7419-2.388-3.0591-3.05912-.8062-.41078-1.6933-.59109-2.7557-.67788-1.04129-.08508-2.33524-.08508-3.97779-.08507h-3.44441c-.55228 0-1 .44772-1 1 0 .55229.44772 1 1 1z" fill="#801ed7"/></svg>

<svg width="24" height="24" viewBox="0 0 24 24" fill="none" xmlns="http://www.w3.org/2000/svg">
<path d="M6.4 5C8.09666 5 9.30901 5.00078 10.2594 5.07842C11.198 5.15512 11.7927 5.30179 12.27 5.54497C13.2108 6.02433 13.9757 6.78924 14.455 7.73005C14.6982 8.20731 14.8449 8.80197 14.9216 9.74064C14.9992 10.691 15 11.9033 15 13.6L15 17.5858L11.7071 14.2929C11.3166 13.9024 10.6834 13.9024 10.2929 14.2929C9.90237 14.6834 9.90237 15.3166 10.2929 15.7071L15.2929 20.7071C15.6834 21.0976 16.3166 21.0976 16.7071 20.7071L21.7071 15.7071C22.0976 15.3166 22.0976 14.6834 21.7071 14.2929C21.3166 13.9024 20.6834 13.9024 20.2929 14.2929L17 17.5858L17 13.5556C17 11.913 17 10.6191 16.9149 9.57778C16.8281 8.51543 16.6478 7.62827 16.237 6.82207C15.5659 5.50493 14.4951 4.43407 13.1779 3.76295C12.3717 3.35217 11.4846 3.17186 10.4222 3.08507C9.38091 2.99999 8.08696 2.99999 6.44441 3H3C2.44772 3 2 3.44772 2 4C2 4.55229 2.44772 5 3 5L6.4 5Z" fill="#801ED7"/>
</svg>
